X:6
T:Turriff Hunt
C:Robert Petrie
S:Petrie's Collection of Strathspey Reels and Country Dances &c., 1790
Z:Steve Wyrick , 3/20/04
N:Petrie's First Collection, page 4
L:1/8
V:1 name = "violin"
V:2 name = "bass" clef=bass middle=d transpose=-24
M:C
R:Strathspey
K:Gm
[V:1] G<Gd>c A<cd>g|f=e/f/ d<f c<fA>F|G<GTd>c A>cd<g|f<df>A BGG2:|
[V:2] g2 b2  z2 b2 |a2     b2  a2 f2 |g2  b2  z2 B2 |d2 D2  G2G2:|
[V:1] GgTg>f d>f Tg2|d>fc>f    B>fA<F|GgTg>f d>fg>a|f<df>A B<GG>A|
[V:2] b2 g2  b2   g2|b2 a2     g2 f2 |b2 g2  b2 g2 |d'2d2  g2 G2 |
[V:1] GgTg>f df Tg2|d>fc>f B>fA<F|G<GTd>c A>cd<g|f<df>A B<G G2|]
[V:2] B2 G2  B2  g2|b2 a2  g2 f2 |b2  g2  z2 b2 |d'2d2  g2  g2|]
% The above code was written using Phil Taylor's BarFly abc reader/converter/player program.
% Other abc converters (e.g. abc2ps) may require everything after the word "bass" to be
% deleted in the V:2 header line for correct display of notes the bass clef, or require that
% the M: and K: fields be repeated directly under the V:1 header line to display the meter
% and key signature on both staffs.  Some abc MIDI players (e.g. abc2midi) will not play
% multiple-voiced abc code.  -SW
